!!!SOCIAL_FUNCTION:	summer dances
!!!PDT:	1956
!!!OTL: No_192_Crawfish_Dance_Song_(c).krn
!!!LANG: Non-Tone
!!!LING_GROUP: Muskogean
!!!REG: Florida
**kern
*staff1
=1-
=
*clefF4
*k[f#c#g#d#]
*M2/4
32B\LLK
16.B\J
8B\J
8B\L
8c#\J
=2||
*M3/4
32c#\LLK
16.c#\J
8B\J
(8.B\L
16G#\Jk)
4G#\
=3||
*M2/4
32B\LLK
16.B\J
8B\J
8A\L
8A\J
=4||
*M3/4
32A\LLK
16.G#\J
8E\J
4E\
4BB/
=5||
*M2/4
8E\
8r
(8E\L
8G#\J)
=6||
*M3/4
32G#\LLK
16.G#\J
8E\J
4E\
4BB/
=7:|!
4E\
16G#\LK
8.E\J
8E/L
16BB/Jk
16r
=8||
*M5/8
12G#\L
12E\
12E\J
4E\
8r
=9||
*M2/4
(16G#\LK
8.E\J)
8E\L
8E\J
=10||
*M3/8
12G#\L
12E\
12E\J
8E\
==
*-
